src/assets/icons/pul-icon-manuscript.svg

<!-- Generated by IcoMoon.io -->
<svg version="1.1" xmlns="http://www.w3.org/2000/svg" width="16" height="16" viewBox="0 0 16 16">
<title>manuscript</title>
<path d="M9.667 3.333h-3.667c-0.184 0-0.333 0.149-0.333 0.333s0.149 0.333 0.333 0.333h3.667c0.184 0 0.333-0.149 0.333-0.333s-0.149-0.333-0.333-0.333zM9.667 5.333h-3.667c-0.184 0-0.333 0.149-0.333 0.333s0.149 0.333 0.333 0.333h3.667c0.184 0 0.333-0.149 0.333-0.333s-0.149-0.333-0.333-0.333zM9.667 7.333h-3.667c-0.184 0-0.333 0.149-0.333 0.333s0.149 0.333 0.333 0.333h3.667c0.184 0 0.333-0.149 0.333-0.333s-0.149-0.333-0.333-0.333zM9.667 9.333h-3.667c-0.184 0-0.333 0.149-0.333 0.333s0.149 0.333 0.333 0.333h3.667c0.184 0 0.333-0.149 0.333-0.333s-0.149-0.333-0.333-0.333zM14 0c-0.076 0-0.149 0.014-0.222 0.023-0.035-0.013-0.071-0.023-0.111-0.023h-8c-1.287 0-2.333 1.047-2.333 2.333v9h-1c-1.287 0-2.333 1.047-2.333 2.333s1.047 2.333 2.333 2.333h8c1.287 0 2.333-1.047 2.333-2.333v-11h3c0.184 0 0.333-0.149 0.333-0.333 0-1.374-0.822-2.333-2-2.333zM2.333 15.333c-0.919 0-1.667-0.748-1.667-1.667s0.747-1.667 1.667-1.667h6.369c-0.433 0.424-0.702 1.014-0.702 1.667s0.269 1.243 0.702 1.667h-6.369zM12 13.667c0 0.919-0.747 1.667-1.667 1.667s-1.667-0.748-1.667-1.667 0.747-1.667 1.667-1.667c0.184 0 0.333-0.149 0.333-0.333s-0.149-0.333-0.333-0.333h-6.333v-9c0-0.919 0.747-1.667 1.667-1.667h6.853c-0.319 0.355-0.52 0.819-0.52 1.333v11.667zM12.667 2c0-0.736 0.598-1.333 1.333-1.333 0.705 0 1.206 0.523 1.312 1.333h-2.645z"></path>
</svg>

<svg xmlns="http://www.w3.org/2000/svg" viewBox="0 0 16 16">
    <path d="M9.667 3.333H6a.333.333 0 1 0 0 .666h3.667a.333.333 0 1 0 0-.666zm0 2H6a.333.333 0 1 0 0 .666h3.667a.333.333 0 1 0 0-.666zm0 2H6a.333.333 0 1 0 0 .666h3.667a.333.333 0 1 0 0-.666zm0 2H6a.333.333 0 1 0 0 .666h3.667a.333.333 0 1 0 0-.666zM14 0c-.076 0-.149.014-.222.023A.314.314 0 0 0 13.667 0h-8a2.336 2.336 0 0 0-2.333 2.333v9h-1c-1.287 0-2.333 1.047-2.333 2.333s1.047 2.333 2.333 2.333h8a2.336 2.336 0 0 0 2.333-2.333v-11h3A.333.333 0 0 0 16 2.333C16 .959 15.178 0 14 0zM2.333 15.333c-.919 0-1.667-.748-1.667-1.667s.747-1.667 1.667-1.667h6.369C8.269 12.423 8 13.013 8 13.666s.269 1.243.702 1.667H2.333zM12 13.667c0 .919-.747 1.667-1.667 1.667s-1.667-.748-1.667-1.667S9.413 12 10.333 12a.333.333 0 1 0 0-.666H4v-9C4 1.415 4.747.667 5.667.667h6.853C12.201 1.022 12 1.486 12 2v11.667zM12.667 2c0-.736.598-1.333 1.333-1.333.705 0 1.206.523 1.312 1.333h-2.645z"/>
</svg>
